images_sukapura_svg/cmd/32/printpreview.svg

<svg viewBox="0 0 32 32" xmlns="http://www.w3.org/2000/svg" xmlns:xlink="http://www.w3.org/1999/xlink"><linearGradient id="a" gradientUnits="userSpaceOnUse" x1="26.763672" x2="26.92642" xlink:href="#b" y1="29.552734" y2="15.360801"/><linearGradient id="b" gradientTransform="translate(-51.457627 1.694915)" gradientUnits="userSpaceOnUse" x1="14" x2="13.79661" y1="22" y2="2.135593"><stop offset="0" stop-color="#0040dd"/><stop offset="1" stop-color="#0a84ff"/></linearGradient><linearGradient id="c" gradientUnits="userSpaceOnUse" x1="19.20339" x2="19.983051" xlink:href="#b" y1="29.82041" y2="14.769562"/><radialGradient id="d" cx="22" cy="9.076923" gradientTransform="matrix(1.3 .00000001 -.00000002 1.5 -6.6 -6.615385)" gradientUnits="userSpaceOnUse" r="10"><stop offset="0" stop-color="#d7d7d7"/><stop offset=".29999998" stop-color="#f7f7f7"/><stop offset="1" stop-color="#fff"/></radialGradient><linearGradient id="e" gradientUnits="userSpaceOnUse" x1="20" x2="23" y1="9" y2="6"><stop offset="0" stop-color="#fff"/><stop offset=".77967989" stop-color="#f1f1f1"/><stop offset="1" stop-color="#d5d5d5"/></linearGradient><path d="m6 3v26h19.99762l.00238-19-7-7z" fill="url(#d)"/><path d="m5.9976202 2c-.554 0-1 .446-1 1v26c0 .554.446 1 1 1h19.9999998c.554 0 .892483-.456533 1-1v-10.109375-10.5052752l-6.508082-6.3853498zm0 1h12.9999998v6c0 .6726441.491378 1 1 1h6v19h-19.9999998z" fill="#98989d"/><path d="m20 9h6l-6-6z" fill="url(#e)" fill-rule="evenodd"/><path d="m20 13.990234c-.825466 0-1.612803.168115-2.330078.472657s-1.36457.745429-1.908203 1.289062c-.543634.543634-.984521 1.190928-1.289063 1.908203s-.472656 1.504613-.472656 2.330078c0 .825466.168114 1.612805.472656 2.330078.304542.717275.745429 1.36457 1.289063 1.908204.543633.543633 1.190928.98452 1.908203 1.289062s1.504612.472656 2.330078.472656h.001953c.888678-.0014 1.736354-.259227 2.533203-.636718l3.462891 3.46289.574219.574219c.052669.054857.112977.099606.171875.146484.107625-.161635.212832-.329494.253906-.537109v-4.839844l-1-1-.634766-.634765c.373525-.788574.628066-1.627256.634766-2.50586v-.068359c-.005358-.820961-.177982-1.603638-.484375-2.316406-.306394-.712768-.746188-1.354654-1.289063-1.894532-.542874-.539877-1.187544-.978962-1.902343-1.28125-.7148-.302287-1.500096-.46875-2.322266-.46875zm0 4a2 2 0 0 1 2 2 2 2 0 0 1 -2 2 2 2 0 0 1 -2-2 2 2 0 0 1 2-2z" fill="#fff" fill-opacity=".784314"/><path d="m28 27.9899-4.864407-4.769561" fill="none" stroke="url(#a)" stroke-linecap="round" stroke-linejoin="round" stroke-width="3"/><path d="m20 14.990234a5 5 0 0 0 -5 5 5 5 0 0 0 5 5 5 5 0 0 0 5-5 5 5 0 0 0 -5-5zm0 2a3 3 0 0 1 3 3 3 3 0 0 1 -3 3 3 3 0 0 1 -3-3 3 3 0 0 1 3-3z" fill="url(#c)" opacity=".99"/></svg>

<?xml version="1.0" encoding="UTF-8" standalone="no"?>
<svg
   xmlns:dc="http://purl.org/dc/elements/1.1/"
   xmlns:cc="http://creativecommons.org/ns#"
   xmlns:rdf="http://www.w3.org/1999/02/22-rdf-syntax-ns#"
   xmlns:svg="http://www.w3.org/2000/svg"
   xmlns="http://www.w3.org/2000/svg"
   xmlns:xlink="http://www.w3.org/1999/xlink"
   xmlns:sodipodi="http://sodipodi.sourceforge.net/DTD/sodipodi-0.dtd"
   xmlns:inkscape="http://www.inkscape.org/namespaces/inkscape"
   viewBox="0 0 32 32"
   version="1.1"
   id="svg22"
   sodipodi:docname="printpreview.svg"
   inkscape:version="0.92.3 (2405546, 2018-03-11)">
  <metadata
     id="metadata28">
    <rdf:RDF>
      <cc:Work
         rdf:about="">
        <dc:format>image/svg+xml</dc:format>
        <dc:type
           rdf:resource="http://purl.org/dc/dcmitype/StillImage" />
        <dc:title></dc:title>
      </cc:Work>
    </rdf:RDF>
  </metadata>
  <defs
     id="defs26">
    <radialGradient
       id="a-7"
       cx="22"
       cy="9.0769234"
       gradientTransform="matrix(1.3,1e-8,-2e-8,1.5,-6.6,-6.615385)"
       gradientUnits="userSpaceOnUse"
       r="10">
      <stop
         offset="0"
         stop-color="#d7d7d7"
         id="stop2-1" />
      <stop
         offset=".29999998"
         stop-color="#f7f7f7"
         id="stop4-1" />
      <stop
         offset="1"
         stop-color="#fff"
         id="stop6-5" />
    </radialGradient>
    <linearGradient
       inkscape:collect="always"
       xlink:href="#a-9"
       id="linearGradient859"
       x1="26.763672"
       y1="29.552734"
       x2="26.92642"
       y2="15.360801"
       gradientUnits="userSpaceOnUse" />
    <linearGradient
       gradientTransform="translate(-51.457627,1.6949153)"
       id="a-9"
       gradientUnits="userSpaceOnUse"
       x1="14"
       x2="13.79661"
       y1="22"
       y2="2.1355929">
      <stop
         offset="0"
         stop-color="#0040dd"
         id="stop2206" />
      <stop
         offset="1"
         stop-color="#0a84ff"
         id="stop2208" />
    </linearGradient>
    <linearGradient
       inkscape:collect="always"
       xlink:href="#a-9"
       id="linearGradient846"
       x1="19.20339"
       y1="29.82041"
       x2="19.983051"
       y2="14.769562"
       gradientUnits="userSpaceOnUse" />
  </defs>
  <sodipodi:namedview
     pagecolor="#ffffff"
     bordercolor="#666666"
     borderopacity="1"
     objecttolerance="10"
     gridtolerance="10"
     guidetolerance="10"
     inkscape:pageopacity="0"
     inkscape:pageshadow="2"
     inkscape:window-width="1366"
     inkscape:window-height="685"
     id="namedview24"
     showgrid="true"
     inkscape:zoom="10.429825"
     inkscape:cx="26.322808"
     inkscape:cy="28.846897"
     inkscape:window-x="0"
     inkscape:window-y="0"
     inkscape:window-maximized="1"
     inkscape:current-layer="g838"
     inkscape:pagecheckerboard="true"
     inkscape:snap-global="false">
    <inkscape:grid
       type="xygrid"
       id="grid1710" />
  </sodipodi:namedview>
  <radialGradient
     id="a"
     cx="22"
     cy="9.076923"
     gradientTransform="matrix(1.3 .00000001 -.00000002 1.5 -6.6 -6.615385)"
     gradientUnits="userSpaceOnUse"
     r="10">
    <stop
       offset="0"
       stop-color="#d7d7d7"
       id="stop2" />
    <stop
       offset=".29999998"
       stop-color="#f7f7f7"
       id="stop4" />
    <stop
       offset="1"
       stop-color="#fff"
       id="stop6" />
  </radialGradient>
  <linearGradient
     id="b"
     gradientUnits="userSpaceOnUse"
     x1="20"
     x2="23"
     y1="9"
     y2="6">
    <stop
       offset="0"
       stop-color="#fff"
       id="stop9" />
    <stop
       offset=".77967989"
       stop-color="#f1f1f1"
       id="stop11" />
    <stop
       offset="1"
       stop-color="#d5d5d5"
       id="stop13" />
  </linearGradient>
  <g
     id="g838">
    <path
       id="path16"
       d="m6 3v26h19.99762l.00238-19-7-7z"
       fill="url(#a)" />
    <path
       id="path18"
       d="m5.9976202 2c-.554 0-1 .446-1 1v26c0 .554.446 1 1 1h19.9999998c.554 0 .892483-.456533 1-1v-10.109375-10.5052752l-6.508082-6.3853498zm0 1h12.9999998v6c0 .6726441.491378 1 1 1h6v19h-19.9999998z"
       fill="#98989d" />
    <path
       id="path20"
       fill-rule="evenodd"
       fill="url(#b)"
       d="m20 9h6l-6-6z" />
    <path
       style="fill:#ffffff;fill-opacity:0.78431374"
       d="M 20 13.990234 C 19.174534 13.990234 18.387197 14.158349 17.669922 14.462891 C 16.952647 14.767433 16.305352 15.20832 15.761719 15.751953 C 15.218085 16.295587 14.777198 16.942881 14.472656 17.660156 C 14.168114 18.377431 14 19.164769 14 19.990234 C 14 20.8157 14.168114 21.603039 14.472656 22.320312 C 14.777198 23.037587 15.218085 23.684882 15.761719 24.228516 C 16.305352 24.772149 16.952647 25.213036 17.669922 25.517578 C 18.387197 25.82212 19.174534 25.990234 20 25.990234 L 20.001953 25.990234 C 20.890631 25.988834 21.738307 25.731007 22.535156 25.353516 L 25.998047 28.816406 L 26.572266 29.390625 C 26.624935 29.445482 26.685243 29.490231 26.744141 29.537109 C 26.851766 29.375474 26.956973 29.207615 26.998047 29 L 26.998047 24.160156 L 25.998047 23.160156 L 25.363281 22.525391 C 25.736806 21.736817 25.991347 20.898135 25.998047 20.019531 L 25.998047 19.951172 C 25.992689 19.130211 25.820065 18.347534 25.513672 17.634766 C 25.207278 16.921998 24.767484 16.280112 24.224609 15.740234 C 23.681735 15.200357 23.037065 14.761272 22.322266 14.458984 C 21.607466 14.156697 20.82217 13.990234 20 13.990234 z M 20 17.990234 A 2 2 0 0 1 22 19.990234 A 2 2 0 0 1 20 21.990234 A 2 2 0 0 1 18 19.990234 A 2 2 0 0 1 20 17.990234 z "
       id="path1607" />
    <path
       inkscape:connector-curvature="0"
       d="M 28,27.9899 23.135593,23.220339"
       id="path20-2"
       style="fill:none;stroke:url(#linearGradient859);stroke-width:3;stroke-linecap:round;stroke-linejoin:round;stroke-miterlimit:4;stroke-dasharray:none"
       sodipodi:nodetypes="cc" />
    <path
       style="opacity:0.98999999;fill:url(#linearGradient846);fill-opacity:1"
       d="M 20 14.990234 A 5 5 0 0 0 15 19.990234 A 5 5 0 0 0 20 24.990234 A 5 5 0 0 0 25 19.990234 A 5 5 0 0 0 20 14.990234 z M 20 16.990234 A 3 3 0 0 1 23 19.990234 A 3 3 0 0 1 20 22.990234 A 3 3 0 0 1 17 19.990234 A 3 3 0 0 1 20 16.990234 z "
       id="circle10" />
  </g>
</svg>
